X: 32174
T: Peter Turbit's
R: jig
M: 6/8
K: Adorian
|:ABA A2B|G3 GAB|A3 A (3Bcd|e2d efg|
ABA A2B|G3 GAB|ccA BAG|1 A3 EFG:|2 A3 A2f||
g2e e2f|gfe dBA|g2e e2f|g2a bba|
g2e e2f|gfe .d.c.B|ccA BAG|1 A3 A2f:|2 A3 EFG||

